svgs/duotone/objects-align-bottom.svg

<svg xmlns="http://www.w3.org/2000/svg" viewBox="0 0 512 512"><!--! Font Awesome Pro 6.4.2 by @fontawesome - https://fontawesome.com License - https://fontawesome.com/license (Commercial License) Copyright 2023 Fonticons, Inc. --><path class="fa-primary" style="fill:var(--fa-primary-color,inherit);opacity:var(--fa-primary-opacity,1);" d="M0 488c0 13.3 10.7 24 24 24l464 0c13.3 0 24-10.7 24-24s-10.7-24-24-24L24 464c-13.3 0-24 10.7-24 24z"/><path class="fa-secondary" style="fill:var(--fa-secondary-color,inherit);opacity:var(--fa-secondary-opacity,.4);" d="M112 384c-26.5 0-48-21.5-48-48L64 48C64 21.5 85.5 0 112 0l64 0c26.5 0 48 21.5 48 48l0 288c0 26.5-21.5 48-48 48l-64 0zm224 0c-26.5 0-48-21.5-48-48l0-160c0-26.5 21.5-48 48-48l64 0c26.5 0 48 21.5 48 48l0 160c0 26.5-21.5 48-48 48l-64 0z"/></svg>

<svg xmlns="http://www.w3.org/2000/svg" viewBox="0 0 512 512"><!--! Font Awesome Pro 6.1.1 by @fontawesome - https://fontawesome.com License - https://fontawesome.com/license (Commercial License) Copyright 2022 Fonticons, Inc. --><defs><style>.fa-secondary{opacity:.4}</style></defs><path class="fa-primary" d="M24 464H488C501.3 464 512 474.7 512 488C512 501.3 501.3 512 488 512H24C10.75 512 0 501.3 0 488C0 474.7 10.75 464 24 464z"/><path class="fa-secondary" d="M112 384C85.49 384 64 362.5 64 336V48C64 21.49 85.49 0 112 0H176C202.5 0 224 21.49 224 48V336C224 362.5 202.5 384 176 384H112zM336 384C309.5 384 288 362.5 288 336V176C288 149.5 309.5 128 336 128H400C426.5 128 448 149.5 448 176V336C448 362.5 426.5 384 400 384H336z"/></svg>
